X:1
T:Channels Only
T:Ada Rose Gibbs, 1900
T:Channels Only
T:Public Domain
T:Public Domain
C:Ada Rose Gibbs, 1900
Z:Public Domain
%%score ( 1 2 ) ( 3 4 )
L:1/8
M:3/4
K:Ab
V:1 treble 
V:2 treble 
V:3 bass 
V:4 bass 
V:1
 E[EA] | [Ac]2 [EA]2 [DF][FA] | [DF]2 [CE]2 [CE][CA] | [EG]3 [EA] [GB][Gc] | [GB]4 E[EA] | %5
w: 1.~How I|Thee, pre- cious Sav-|ior, That Thy love|laid hold of me;|Thou hast saved|
w: 2.~Just a|nel full of bless-|ing, To the thirst-|y hearts a- round;|To tell out|
w: 3.~Emp- tied|Thou should- est fill|me, A clean ves-|sel in Thy hand;|With no power|
w: 4.~Wit- ness-|Thy power to save|me, Set- ting free|from self and sin;|Thou who bought-|
w: 5.~Je- sus,|now with Thy Spir-|it Hearts that full|sur- ren- der know;|That the streams|
 [Ac]2 [EA]2 [DF][FA] | [DF]2 [CE]2 [CE][CA] | [EG]3 [EA] [GB][Gc] | A4 ||"^Refrain" [Ac][Ad] | %10
w: cleansed and filled me|That I might Thy|chan- nel be. *|||
w: full sal- va- tion|All Thy lov- ing|mess- age sound. *|||
w: as Thou giv- est|Gra- cious- ly with|each com- mand. *|||
w: to pos- sess me,|In Thy full- ness,|Lord, come in. *|||
w: liv- ing wa- ter|From our in- ner|self may flow. *|||
 A2 [GB]2 [GB][Gc] | [EA]2 [EA]2 [EA][EG] | [DF]2 [DF]2 [FA][DF] | (D2 C2) [Ac][Ad] | %14
w: ||||
w: ||||
w: ||||
w: ||||
w: ||||
 [AB]2 [GB]2 [GB][Gc] | [EA]2 [EA]2 [GB][Ac] | [Fd]2 [DF]2 [EG]>[EA] | [EA]4 |] %18
w: ||||
w: ||||
w: ||||
w: ||||
w: ||||
V:2
 E x | x6 | x6 | x6 | x4 E x | x6 | x6 | x6 | A4 || x2 | B2 x4 | x6 | x6 | E4 x2 | x6 | x6 | x6 | %17
w: praise||||and|||||||||||||
w: chan-||||Thy|||||||||||||
w: that||||but|||||||||||||
w: ing||||est|||||||||||||
w: fill||||of|||||||||||||
 x4 |] %18
w: |
w: |
w: |
w: |
w: |
V:3
 [A,C][A,C] | [A,E]2 [A,C]2 [D,A,][D,A,] | [A,,A,]2 [A,,A,]2 [A,,A,][A,,A,] | %3
w: ~ ~|~ ~ ~ ~|~ ~ ~ ~|
 [E,B,]3 [E,C] [E,D][E,E] | [E,D]4 [A,C][A,C] | [A,E]2 [A,C]2 [D,A,][D,A,] | %6
w: ~ ~ ~ ~|~ ~ ~|~ ~ ~ ~|
 [A,,A,]2 [A,,A,]2 [A,,A,][A,,A,] | [E,B,]3 [E,C] [E,D][E,D] | [A,C]4 || [A,E][A,F] | %10
w: ~ ~ ~ ~|~ ~ ~ ~|~|Chan- nels|
 [E,E]2 [E,E]2 [E,D][E,D] | [A,D]2 [A,C]2 [A,C][A,C] | [D,D]2 [D,A,]2 [D,D][D,A,] | %13
w: on- ly, bless- èd|Mas- ter, But with|all Thy won- drous|
 A,4 [A,E][A,F] | [E,E]2 [E,E]2 [E,D][E,D] | [A,D]2 [A,C]2 [E,E][A,E] | [D,D]2 [D,D]2 [E,D]>[E,D] | %17
w: power Flow- ing|us, Thou canst use|us Ev- ery day|and ev- ery hour.|
 [A,,C]4 |] %18
w: |
V:4
 x2 | x6 | x6 | x6 | x6 | x6 | x6 | x6 | x4 || x2 | x6 | x6 | x6 | A,4 x2 | x6 | x6 | x6 | x4 |] %18
w: |||||||||||||through|||||

